X: 270
T:Creek Road March
C:Ian R. MacLeod 1990
M:2/4
R:March
L:1/16
Z:Alf Warnock - alf0@rogers.com
K:D
A>d|"D"f<af>e f2A>d|f<af>e f2c>d|"A"c<ee>f e>dc>d|e>dc>d c<eA>d|
"D"f<af>e f2A>d|f<af>e "D7"d2d>c|"G"B<GB>d "A7"c>Ac<e|"D"d4 d2:|
A>G|"D"F<DF>G A2d>c|"G"B<GB>c d2d>B|"D"A<FF>A "Bm"B>AG<F|"Em"G2E2 "A7"E2A>G|
"D"F<DF>G A2d>c|"G"B<GB>c "Em"d2d>B|"D"A<FF>A "A7"G>A,C<E|"D"D4 D2:|
